icons/line/calculator.svg

<svg width="24" height="24" viewBox="0 0 24 24" fill="none" xmlns="http://www.w3.org/2000/svg">
<path fill-rule="evenodd" clip-rule="evenodd" d="M4 5C4 3.34315 5.34315 2 7 2H17C18.6569 2 20 3.34315 20 5V19C20 20.6569 18.6569 22 17 22H7C5.34315 22 4 20.6569 4 19V5ZM7 4C6.44772 4 6 4.44772 6 5V19C6 19.5523 6.44772 20 7 20H17C17.5523 20 18 19.5523 18 19V5C18 4.44772 17.5523 4 17 4H7ZM8 7C8 6.44772 8.44772 6 9 6H15C15.5523 6 16 6.44772 16 7V11C16 11.5523 15.5523 12 15 12H9C8.44772 12 8 11.5523 8 11V7ZM10 8V10H14V8H10ZM15 13C15.5523 13 16 13.4477 16 14V17C16 17.5523 15.5523 18 15 18C14.4477 18 14 17.5523 14 17V14C14 13.4477 14.4477 13 15 13ZM8 14C8 13.4477 8.44772 13 9 13H9.01C9.56228 13 10.01 13.4477 10.01 14C10.01 14.5523 9.56228 15 9.01 15H9C8.44772 15 8 14.5523 8 14ZM12 13C11.4477 13 11 13.4477 11 14C11 14.5523 11.4477 15 12 15H12.01C12.5623 15 13.01 14.5523 13.01 14C13.01 13.4477 12.5623 13 12.01 13H12ZM11 17C11 16.4477 11.4477 16 12 16H12.01C12.5623 16 13.01 16.4477 13.01 17C13.01 17.5523 12.5623 18 12.01 18H12C11.4477 18 11 17.5523 11 17ZM9 16C8.44772 16 8 16.4477 8 17C8 17.5523 8.44772 18 9 18H9.01C9.56228 18 10.01 17.5523 10.01 17C10.01 16.4477 9.56228 16 9.01 16H9Z" fill="currentColor"/>
</svg>

<svg width="24" height="24" fill="none" xmlns="http://www.w3.org/2000/svg"><path fill-rule="evenodd" clip-rule="evenodd" d="M4 5a3 3 0 013-3h10a3 3 0 013 3v14a3 3 0 01-3 3H7a3 3 0 01-3-3V5zm3-1a1 1 0 00-1 1v14a1 1 0 001 1h10a1 1 0 001-1V5a1 1 0 00-1-1H7zm1 3a1 1 0 011-1h6a1 1 0 011 1v4a1 1 0 01-1 1H9a1 1 0 01-1-1V7zm2 1v2h4V8h-4zm5 5a1 1 0 011 1v3a1 1 0 11-2 0v-3a1 1 0 011-1zm-7 1a1 1 0 011-1h.01a1 1 0 110 2H9a1 1 0 01-1-1zm4-1a1 1 0 100 2h.01a1 1 0 100-2H12zm-1 4a1 1 0 011-1h.01a1 1 0 110 2H12a1 1 0 01-1-1zm-2-1a1 1 0 100 2h.01a1 1 0 100-2H9z" fill="currentColor"/></svg>
